mortalkombat/_inc/system.svg

<svg xmlns="http://www.w3.org/2000/svg"><g fill="#fff"><path d="m426.971 53.017-4.855-17.052v11.934c-.13 11.02.133 12.2 2.887 14.037 2.752 1.968 2.098 2.097-9.577 2.097-11.671 0-12.329-.129-9.441-2.097 2.884-1.967 2.884-2.492 2.884-30.038 0-26.756-.132-27.938-2.622-28.726-5.117-1.572-.92-3.41 7.345-3.147l8.261.262 1.968 6.69c1.05 3.672 3.28 11.412 4.855 17.184 1.572 5.769 2.884 10.624 3.147 10.884.13.133 1.575-4.59 3.147-10.492 1.575-6.034 3.805-13.771 4.855-17.443l1.835-6.56h28.33 28.334l2.622 3.147c2.23 2.888 2.492 4.593 1.837 13.117-.395 5.51-.658 11.149-.525 12.591.788 24.399.393 31.086-2.1 32.923-2.097 1.443-8.787 1.838-33.445 1.705-28.463 0-30.693-.129-27.938-2.097 2.622-1.837 2.885-3.017 2.755-14.037l-.133-11.934-1.967 7.215c-1.05 3.935-3.28 11.671-4.852 17.051l-2.885 9.837zm36.725-20.857-.393-28.988h-3.937-3.935l-.392 28.201c-.263 24.399 0 28.463 1.705 29.643 1.179.92 3.279 1.312 4.722.92 2.492-.658 2.492-1.837 2.23-29.776zm24.921 13.38-.393-10.887-5.51-.393-5.639-.395v11.149 11.28h5.902 6.032zm.262-27.939v-8.524h-5.902-5.902v8.524 8.528h5.902 5.902z"/><path d="m26.919 67.443c-.392-.788-2.36-7.737-4.46-15.739l-3.802-14.429-.395 11.149c-.392 10.232-.13 11.282 2.625 13.379 2.885 2.23 2.752 2.363-9.444 2.23-11.675 0-12.329-.129-9.445-2.097 2.885-1.967 2.885-2.492 2.885-30.038 0-26.756-.13-27.938-2.622-28.726-4.985-1.572-1.313-3.014 6.952-2.752l8.132.13 2.884 9.182c1.576 5.114 3.935 12.984 5.248 17.444l2.359 8.394 4.723-17.576 4.722-17.444 8.79-.13c8.524-.133 12.458 1.18 7.344 2.493-2.492.654-2.622 1.834-2.622 28.985 0 24.003.259 28.593 1.967 29.118 4.852 1.967 1.047 3.15-9.444 3.15h-11.412l2.884-2.625c2.626-2.493 2.888-3.935 2.755-14.164l-.129-11.412-1.968 6.557c-1.05 3.672-3.15 11.02-4.855 16.397-1.572 5.377-3.147 9.182-3.672 8.524z"/><path d="m61.284 62.853c-2.884-1.704-3.672-55.743-.917-59.548 1.572-2.23 3.672-2.493 19.149-2.622 15.741-.133 17.576.129 19.281 2.359 2.888 3.935 2.625 56.139-.263 59.024-1.572 1.705-5.244 2.1-18.623 2.1-9.182 0-17.577-.658-18.627-1.313zm24.921-10.099c.263-28.333.133-42.367-.392-43.285-.395-.654-3.41-.917-6.69-.654l-6.034.525v23.475 23.479h6.559c6.295 0 6.557-.13 6.557-3.54z"/><path d="m104.569 62.983c0-.655.917-1.442 1.968-1.967 1.704-.525 1.967-5.115 1.967-28.985 0-23.874-.263-28.464-1.967-28.989-5.51-2.23-.133-2.884 17.443-2.492 24.266.655 23.874.395 23.874 19.151 0 11.934-.263 13.377-3.017 16.002l-2.885 2.884 6.557 10.887c5.114 8.527 7.344 11.017 10.232 11.675 6.819 1.442 4.982 3.017-3.28 3.017-5.115 0-9.312-.788-11.02-1.967-1.572-1.05-5.902-6.952-9.836-13.117-5.507-8.657-7.737-11.149-9.704-10.887-2.363.392-2.626 1.442-2.626 11.149 0 9.179.396 11.017 2.626 12.722 2.359 1.838 1.704 1.967-8.79 2.1-6.427 0-11.542-.525-11.542-1.183zm29.118-42.364c.392-5.248.392-9.97.13-10.495-.263-.655-3.147-1.047-6.427-1.047h-5.769v10.492 10.494h5.769 5.772z"/><path d="m169.887 61.936c2.888-1.967 2.888-2.625 2.888-27.413v-25.446h-5.64c-5.642 0-10.102 2.752-10.102 6.294 0 .918-.655 1.576-1.442 1.576-.918 0-1.047-1.838-.525-5.51 1.967-11.675.262-10.887 24.398-10.887h21.512l.784 5.247c.395 2.885 1.183 6.557 1.705 8.262 1.312 3.935-1.572 3.805-3.014-.263-1.443-3.539-3.805-4.719-10.1-4.719h-4.459v25.183c0 21.512.262 25.446 2.229 27.543 1.968 2.23 1.705 2.363-9.577 2.23-11.016 0-11.541-.129-8.657-2.097z"/><path d="m194.811 61.803c2.36-1.834 4.982-8.657 11.409-29.905 7.477-24.659 8.132-27.543 6.164-28.985-1.179-.921-1.834-1.708-1.442-1.838 3.147-.392 19.544-.525 19.544-.13 0 .392-.788 1.31-1.835 2.097-1.575 1.18-.92 4.59 4.065 21.119 10.494 35.675 11.016 36.725 15.476 36.725h3.935l.395-27.546c.263-26.101.263-27.676-2.23-29.643-1.442-1.18-2.362-2.36-2.1-2.622.658-.788 21.644-.263 22.431.525.393.392-.525 1.05-1.967 1.572-2.625.788-2.755 1.708-2.755 27.021v26.101h8.395c7.607 0 9.049-.393 14.426-4.59 3.28-2.492 6.035-3.935 6.035-3.28 0 .658-1.575 4.46-3.543 8.527l-3.539 7.215h-30.168c-27.546 0-30.039-.133-28.071-2.1 1.705-1.705 1.837-2.885.395-7.477l-1.575-5.507h-7.607-7.607l-1.705 5.769c-1.575 5.248-1.445 6.035.522 7.477 1.838 1.443.525 1.705-8.916 1.705-11.02.133-11.149 0-8.132-2.23zm30.298-22.82c0-.921-1.18-4.593-2.363-8.265l-2.359-6.557-2.101 7.474c-1.309 4.068-2.229 7.74-2.229 8.132 0 .395 2.1.788 4.592.788 2.885 0 4.59-.655 4.46-1.572z"/><path d="m303.939 62.983c0-.655.917-1.442 1.967-1.967 1.705-.525 1.967-4.985 1.967-28.068 0-22.824-.395-27.806-1.967-29.118-3.41-2.885-2.23-3.41 8.262-3.28 13.116.262 13.116.262 9.707 2.755-2.622 1.837-2.885 3.147-2.885 12.721v10.757l7.212-11.149c7.477-11.542 8.264-13.117 5.642-13.117-.787 0-1.05-.392-.657-.917 1.312-1.18 21.906-1.442 22.561-.263.392.525-.788 1.313-2.622 1.705-2.363.655-5.905 4.723-11.937 13.772l-8.527 12.854 9.444 15.346c7.74 12.725 10.099 15.477 13.117 16.135 6.427 1.309 4.197 3.017-3.935 3.017-9.574 0-12.592-2.23-20.069-14.692l-5.377-9.182-2.359 3.147c-3.151 3.938-3.413 16.53-.525 17.577 4.722 1.837 1.179 3.15-8.528 3.15-5.769 0-10.491-.525-10.491-1.183z"/><path d="m361.387 62.721c-2.097-1.18-2.359-4.065-2.359-29.906 0-25.05.262-28.855 2.23-30.428 2.754-2.362 33.577-2.229 36.462.13 1.575 1.313 1.967 6.69 1.967 30.039 0 20.328-.392 28.855-1.575 30.035-1.967 1.967-33.445 2.097-36.725.13zm25.184-30.036v-23.608h-7.215-7.212v22.691c0 12.592.393 23.216.918 23.608.392.525 3.672.918 7.214.918h6.295z"/><path d="m503.308 62.853c0-.654.918-1.312 1.968-1.312 2.752 0 3.539-1.967 12.329-30.823 7.344-24.133 7.869-26.363 5.769-27.805-1.18-.921-1.967-1.708-1.572-1.838 3.017-.525 19.544-.655 19.544-.13 0 .392-.788 1.31-1.838 2.097-2.622 2.1 13.642 55.481 17.969 58.761 2.755 2.23 2.492 2.363-8.262 2.23-9.707 0-10.887-.129-8.789-1.705 2.229-1.704 2.229-2.229.525-7.606l-1.968-5.64-7.214-.395-7.212-.393-1.967 5.77c-1.838 5.38-1.708 6.035.129 8.002 1.968 1.967 1.313 2.1-8.657 2.1-6.294 0-10.754-.525-10.754-1.313zm32.791-23.086c0-.392-.918-4.064-2.101-8.132l-2.229-7.474-2.36 7.212c-3.147 9.444-3.147 9.182 2.097 9.182 2.492 0 4.593-.393 4.593-.788z"/><path d="m564.954 62.983c0-.655.917-1.442 1.967-1.967 1.705-.525 1.968-4.722 1.968-26.363v-25.576h-5.247c-5.115 0-9.312 2.622-10.755 6.69-1.704 4.589-1.967-.263-.525-7.348l1.576-7.869h21.511 21.508l1.05 5.247c.525 2.885 1.312 6.557 1.705 8.262 1.05 4.067-.918 3.542-3.54-1.047-1.967-3.413-2.887-3.935-8.264-3.935h-5.903v25.446c0 24.788 0 25.446 3.018 27.413 2.755 1.968 2.23 2.097-8.527 2.097-6.427.133-11.542-.392-11.542-1.05z"/></g></svg>

<?xml version="1.0" encoding="utf-8"?>
<svg version="1.0" xmlns="http://www.w3.org/2000/svg">
  <g>
    <path d="M 426.971 53.017 L 422.116 35.965 L 422.116 47.899 C 421.986 58.919 422.249 60.099 425.003 61.936 C 427.755 63.904 427.101 64.033 415.426 64.033 C 403.755 64.033 403.097 63.904 405.985 61.936 C 408.869 59.969 408.869 59.444 408.869 31.898 C 408.869 5.142 408.737 3.96 406.247 3.172 C 401.13 1.6 405.327 -0.238 413.592 0.025 L 421.853 0.287 L 423.821 6.977 C 424.871 10.649 427.101 18.389 428.676 24.161 C 430.248 29.93 431.56 34.785 431.823 35.045 C 431.953 35.178 433.398 30.455 434.97 24.553 C 436.545 18.519 438.775 10.782 439.825 7.11 L 441.66 0.55 L 469.99 0.55 L 498.324 0.55 L 500.946 3.697 C 503.176 6.585 503.438 8.29 502.783 16.814 C 502.388 22.324 502.125 27.963 502.258 29.405 C 503.046 53.804 502.651 60.491 500.158 62.328 C 498.061 63.771 491.371 64.166 466.713 64.033 C 438.25 64.033 436.02 63.904 438.775 61.936 C 441.397 60.099 441.66 58.919 441.53 47.899 L 441.397 35.965 L 439.43 43.18 C 438.38 47.115 436.15 54.851 434.578 60.231 L 431.693 70.068 L 426.971 53.017 Z M 463.696 32.16 L 463.303 3.172 L 459.366 3.172 L 455.431 3.172 L 455.039 31.373 C 454.776 55.772 455.039 59.836 456.744 61.016 C 457.923 61.936 460.023 62.328 461.466 61.936 C 463.958 61.278 463.958 60.099 463.696 32.16 Z M 488.617 45.54 L 488.224 34.653 L 482.714 34.26 L 477.075 33.865 L 477.075 45.014 L 477.075 56.294 L 482.977 56.294 L 489.009 56.294 L 488.617 45.54 Z M 488.879 17.601 L 488.879 9.077 L 482.977 9.077 L 477.075 9.077 L 477.075 17.601 L 477.075 26.129 L 482.977 26.129 L 488.879 26.129 L 488.879 17.601 Z" style="fill: rgb(255, 255, 255);"/>
    <path d="M 26.919 67.443 C 26.527 66.655 24.559 59.706 22.459 51.704 L 18.657 37.275 L 18.262 48.424 C 17.87 58.656 18.132 59.706 20.887 61.803 C 23.772 64.033 23.639 64.166 11.443 64.033 C -0.232 64.033 -0.886 63.904 1.998 61.936 C 4.883 59.969 4.883 59.444 4.883 31.898 C 4.883 5.142 4.753 3.96 2.261 3.172 C -2.724 1.6 0.948 0.158 9.213 0.42 L 17.345 0.55 L 20.229 9.732 C 21.805 14.846 24.164 22.716 25.477 27.176 L 27.836 35.57 L 32.559 17.994 L 37.281 0.55 L 46.071 0.42 C 54.595 0.287 58.529 1.6 53.415 2.913 C 50.923 3.567 50.793 4.747 50.793 31.898 C 50.793 55.901 51.052 60.491 52.76 61.016 C 57.612 62.983 53.807 64.166 43.316 64.166 L 31.904 64.166 L 34.788 61.541 C 37.414 59.048 37.676 57.606 37.543 47.377 L 37.414 35.965 L 35.446 42.522 C 34.396 46.194 32.296 53.542 30.591 58.919 C 29.019 64.296 27.444 68.101 26.919 67.443 Z" style="fill: rgb(255, 255, 255);"/>
    <path d="M 61.284 62.853 C 58.4 61.149 57.612 7.11 60.367 3.305 C 61.939 1.075 64.039 0.812 79.516 0.683 C 95.257 0.55 97.092 0.812 98.797 3.042 C 101.685 6.977 101.422 59.181 98.534 62.066 C 96.962 63.771 93.29 64.166 79.911 64.166 C 70.729 64.166 62.334 63.508 61.284 62.853 Z M 86.205 52.754 C 86.468 24.421 86.338 10.387 85.813 9.469 C 85.418 8.815 82.403 8.552 79.123 8.815 L 73.089 9.34 L 73.089 32.815 L 73.089 56.294 L 79.648 56.294 C 85.943 56.294 86.205 56.164 86.205 52.754 Z" style="fill: rgb(255, 255, 255);"/>
    <path d="M 104.569 62.983 C 104.569 62.328 105.486 61.541 106.537 61.016 C 108.241 60.491 108.504 55.901 108.504 32.031 C 108.504 8.157 108.241 3.567 106.537 3.042 C 101.027 0.812 106.404 0.158 123.98 0.55 C 148.246 1.205 147.854 0.945 147.854 19.701 C 147.854 31.635 147.591 33.078 144.837 35.703 L 141.952 38.587 L 148.509 49.474 C 153.623 58.001 155.853 60.491 158.741 61.149 C 165.56 62.591 163.723 64.166 155.461 64.166 C 150.346 64.166 146.149 63.378 144.441 62.199 C 142.869 61.149 138.539 55.247 134.605 49.082 C 129.098 40.425 126.868 37.933 124.901 38.195 C 122.538 38.587 122.275 39.637 122.275 49.344 C 122.275 58.523 122.671 60.361 124.901 62.066 C 127.26 63.904 126.605 64.033 116.111 64.166 C 109.684 64.166 104.569 63.641 104.569 62.983 Z M 133.687 20.619 C 134.079 15.371 134.079 10.649 133.817 10.124 C 133.554 9.469 130.67 9.077 127.39 9.077 L 121.621 9.077 L 121.621 19.569 L 121.621 30.063 L 127.39 30.063 L 133.162 30.063 L 133.687 20.619 Z" style="fill: rgb(255, 255, 255);"/>
    <path d="M 169.887 61.936 C 172.775 59.969 172.775 59.311 172.775 34.523 L 172.775 9.077 L 167.135 9.077 C 161.493 9.077 157.033 11.829 157.033 15.371 C 157.033 16.289 156.378 16.947 155.591 16.947 C 154.673 16.947 154.544 15.109 155.066 11.437 C 157.033 -0.238 155.328 0.55 179.464 0.55 L 200.976 0.55 L 201.76 5.797 C 202.155 8.682 202.943 12.354 203.465 14.059 C 204.777 17.994 201.893 17.864 200.451 13.796 C 199.008 10.257 196.646 9.077 190.351 9.077 L 185.892 9.077 L 185.892 34.26 C 185.892 55.772 186.154 59.706 188.121 61.803 C 190.089 64.033 189.826 64.166 178.544 64.033 C 167.528 64.033 167.003 63.904 169.887 61.936 Z" style="fill: rgb(255, 255, 255);"/>
    <path d="M 194.811 61.803 C 197.171 59.969 199.793 53.146 206.22 31.898 C 213.697 7.239 214.352 4.355 212.384 2.913 C 211.205 1.992 210.55 1.205 210.942 1.075 C 214.089 0.683 230.486 0.55 230.486 0.945 C 230.486 1.337 229.698 2.255 228.651 3.042 C 227.076 4.222 227.731 7.632 232.716 24.161 C 243.21 59.836 243.732 60.886 248.192 60.886 L 252.127 60.886 L 252.522 33.34 C 252.785 7.239 252.785 5.664 250.292 3.697 C 248.85 2.517 247.93 1.337 248.192 1.075 C 248.85 0.287 269.836 0.812 270.623 1.6 C 271.016 1.992 270.098 2.65 268.656 3.172 C 266.031 3.96 265.901 4.88 265.901 30.193 L 265.901 56.294 L 274.296 56.294 C 281.903 56.294 283.345 55.901 288.722 51.704 C 292.002 49.212 294.757 47.769 294.757 48.424 C 294.757 49.082 293.182 52.884 291.214 56.951 L 287.675 64.166 L 257.507 64.166 C 229.961 64.166 227.468 64.033 229.436 62.066 C 231.141 60.361 231.273 59.181 229.831 54.589 L 228.256 49.082 L 220.649 49.082 L 213.042 49.082 L 211.337 54.851 C 209.762 60.099 209.892 60.886 211.859 62.328 C 213.697 63.771 212.384 64.033 202.943 64.033 C 191.923 64.166 191.794 64.033 194.811 61.803 Z M 225.109 38.983 C 225.109 38.062 223.929 34.39 222.746 30.718 L 220.387 24.161 L 218.286 31.635 C 216.977 35.703 216.057 39.375 216.057 39.767 C 216.057 40.162 218.157 40.555 220.649 40.555 C 223.534 40.555 225.239 39.9 225.109 38.983 Z" style="fill: rgb(255, 255, 255);"/>
    <path d="M 303.939 62.983 C 303.939 62.328 304.856 61.541 305.906 61.016 C 307.611 60.491 307.873 56.031 307.873 32.948 C 307.873 10.124 307.478 5.142 305.906 3.83 C 302.496 0.945 303.676 0.42 314.168 0.55 C 327.284 0.812 327.284 0.812 323.875 3.305 C 321.253 5.142 320.99 6.452 320.99 16.026 L 320.99 26.783 L 328.202 15.634 C 335.679 4.092 336.466 2.517 333.844 2.517 C 333.057 2.517 332.794 2.125 333.187 1.6 C 334.499 0.42 355.093 0.158 355.748 1.337 C 356.14 1.862 354.96 2.65 353.126 3.042 C 350.763 3.697 347.221 7.765 341.189 16.814 L 332.662 29.668 L 342.106 45.014 C 349.846 57.739 352.205 60.491 355.223 61.149 C 361.65 62.458 359.42 64.166 351.288 64.166 C 341.714 64.166 338.696 61.936 331.219 49.474 L 325.842 40.292 L 323.483 43.439 C 320.332 47.377 320.07 59.969 322.958 61.016 C 327.68 62.853 324.137 64.166 314.43 64.166 C 308.661 64.166 303.939 63.641 303.939 62.983 Z" style="fill: rgb(255, 255, 255);"/>
    <path d="M 361.387 62.721 C 359.29 61.541 359.028 58.656 359.028 32.815 C 359.028 7.765 359.29 3.96 361.258 2.387 C 364.012 0.025 394.835 0.158 397.72 2.517 C 399.295 3.83 399.687 9.207 399.687 32.556 C 399.687 52.884 399.295 61.411 398.112 62.591 C 396.145 64.558 364.667 64.688 361.387 62.721 Z M 386.571 32.685 L 386.571 9.077 L 379.356 9.077 L 372.144 9.077 L 372.144 31.768 C 372.144 44.36 372.537 54.984 373.062 55.376 C 373.454 55.901 376.734 56.294 380.276 56.294 L 386.571 56.294 L 386.571 32.685 Z" style="fill: rgb(255, 255, 255);"/>
    <path d="M 503.308 62.853 C 503.308 62.199 504.226 61.541 505.276 61.541 C 508.028 61.541 508.815 59.574 517.605 30.718 C 524.949 6.585 525.474 4.355 523.374 2.913 C 522.194 1.992 521.407 1.205 521.802 1.075 C 524.819 0.55 541.346 0.42 541.346 0.945 C 541.346 1.337 540.558 2.255 539.508 3.042 C 536.886 5.142 553.15 58.523 557.477 61.803 C 560.232 64.033 559.969 64.166 549.215 64.033 C 539.508 64.033 538.328 63.904 540.426 62.328 C 542.655 60.624 542.655 60.099 540.951 54.722 L 538.983 49.082 L 531.769 48.687 L 524.557 48.294 L 522.59 54.064 C 520.752 59.444 520.882 60.099 522.719 62.066 C 524.687 64.033 524.032 64.166 514.062 64.166 C 507.768 64.166 503.308 63.641 503.308 62.853 Z M 536.099 39.767 C 536.099 39.375 535.181 35.703 533.998 31.635 L 531.769 24.161 L 529.409 31.373 C 526.262 40.817 526.262 40.555 531.506 40.555 C 533.998 40.555 536.099 40.162 536.099 39.767 Z" style="fill: rgb(255, 255, 255);"/>
    <path d="M 564.954 62.983 C 564.954 62.328 565.871 61.541 566.921 61.016 C 568.626 60.491 568.889 56.294 568.889 34.653 L 568.889 9.077 L 563.642 9.077 C 558.527 9.077 554.33 11.699 552.887 15.767 C 551.183 20.356 550.92 15.504 552.362 8.419 L 553.938 0.55 L 575.449 0.55 L 596.957 0.55 L 598.007 5.797 C 598.532 8.682 599.319 12.354 599.712 14.059 C 600.762 18.126 598.794 17.601 596.172 13.012 C 594.205 9.599 593.285 9.077 587.908 9.077 L 582.005 9.077 L 582.005 34.523 C 582.005 59.311 582.005 59.969 585.023 61.936 C 587.778 63.904 587.253 64.033 576.496 64.033 C 570.069 64.166 564.954 63.641 564.954 62.983 Z" style="fill: rgb(255, 255, 255);"/>
  </g>
</svg>
